SVG-Icons/Socials/slack-black.svg

<svg width="40" height="40" viewBox="0 0 40 40" fill="none" xmlns="http://www.w3.org/2000/svg">
<path d="M0.5 25.34C0.5 26.4009 0.912999 27.4183 1.64814 28.1684C2.38328 28.9186 3.38035 29.34 4.42 29.34C5.45965 29.34 6.45672 28.9186 7.19186 28.1684C7.927 27.4183 8.34 26.4009 8.34 25.34V21.34H4.42C3.38035 21.34 2.38328 21.7614 1.64814 22.5116C0.912999 23.2617 0.5 24.2791 0.5 25.34ZM25.2744 18.66C26.3141 18.66 27.3111 18.2386 28.0463 17.4884C28.7814 16.7383 29.1944 15.7209 29.1944 14.66V4C29.1944 2.93913 28.7814 1.92172 28.0463 1.17157C27.3111 0.421427 26.3141 0 25.2744 0C24.2348 0 23.2377 0.421427 22.5025 1.17157C21.7674 1.92172 21.3544 2.93913 21.3544 4V14.66C21.3544 15.1887 21.4571 15.7121 21.6565 16.2C21.8559 16.688 22.1482 17.1307 22.5164 17.5027C22.8845 17.8746 23.3213 18.1684 23.8014 18.3671C24.2816 18.5657 24.7955 18.6653 25.3136 18.66H25.2744ZM39.6216 14.66C39.6216 13.5991 39.2086 12.5817 38.4735 11.8316C37.7383 11.0814 36.7412 10.66 35.7016 10.66C34.6619 10.66 33.6649 11.0814 32.9297 11.8316C32.1946 12.5817 31.7816 13.5991 31.7816 14.66V18.66H35.7016C36.2229 18.6706 36.7411 18.575 37.2258 18.3788C37.7105 18.1825 38.1519 17.8896 38.5243 17.5171C38.8966 17.1446 39.1924 16.7 39.3943 16.2094C39.5962 15.7188 39.7001 15.1921 39.7 14.66H39.6216ZM14.8864 21.34C13.8468 21.34 12.8497 21.7614 12.1145 22.5116C11.3794 23.2617 10.9664 24.2791 10.9664 25.34L10.9664 36C10.9664 37.0609 11.3794 38.0783 12.1145 38.8284C12.8497 39.5786 13.8468 40 14.8864 40C15.926 40 16.9231 39.5786 17.6583 38.8284C18.3934 38.0783 18.8064 37.0609 18.8064 36V25.34C18.8064 24.2791 18.3934 23.2617 17.6583 22.5116C16.9231 21.7614 15.926 21.34 14.8864 21.34ZM25.3136 32H21.3936V36C21.3936 36.7911 21.6235 37.5645 22.0542 38.2223C22.485 38.8801 23.0972 39.3928 23.8135 39.6955C24.5298 39.9983 25.3179 40.0775 26.0784 39.9231C26.8388 39.7688 27.5372 39.3878 28.0855 38.8284C28.6337 38.269 29.007 37.5563 29.1583 36.7804C29.3095 36.0044 29.2319 35.2002 28.9352 34.4693C28.6385 33.7384 28.1361 33.1136 27.4914 32.6741C26.8468 32.2346 26.0889 32 25.3136 32ZM35.78 21.34H25.3136C24.274 21.34 23.2769 21.7614 22.5417 22.5116C21.8066 23.2617 21.3936 24.2791 21.3936 25.34C21.3936 26.4009 21.8066 27.4183 22.5417 28.1684C23.2769 28.9186 24.274 29.34 25.3136 29.34H35.78C36.8196 29.34 37.8167 28.9186 38.5519 28.1684C39.287 27.4183 39.7 26.4009 39.7 25.34C39.7 24.2791 39.287 23.2617 38.5519 22.5116C37.8167 21.7614 36.8196 21.34 35.78 21.34ZM14.8864 10.66H4.42C3.38035 10.66 2.38328 11.0814 1.64814 11.8316C0.912999 12.5817 0.5 13.5991 0.5 14.66C0.5 15.7209 0.912999 16.7383 1.64814 17.4884C2.38328 18.2386 3.38035 18.66 4.42 18.66H14.8864C15.926 18.66 16.9231 18.2386 17.6583 17.4884C18.3934 16.7383 18.8064 15.7209 18.8064 14.66C18.8064 13.5991 18.3934 12.5817 17.6583 11.8316C16.9231 11.0814 15.926 10.66 14.8864 10.66ZM14.8864 0C13.8468 0 12.8497 0.421427 12.1145 1.17157C11.3794 1.92172 10.9664 2.93913 10.9664 4C10.9664 5.06087 11.3794 6.07828 12.1145 6.82843C12.8497 7.57857 13.8468 8 14.8864 8L18.8064 8V4C18.8064 2.93913 18.3934 1.92172 17.6583 1.17157C16.9231 0.421427 15.926 0 14.8864 0Z" fill="#282E38"/>
</svg>

<svg xmlns="http://www.w3.org/2000/svg" fill="none" viewBox="0 0 40 40"><path fill="#282E38" d="M.5 25.34c0 1.06.413 2.078 1.148 2.828A3.88 3.88 0 0 0 4.42 29.34a3.88 3.88 0 0 0 2.772-1.172A4.042 4.042 0 0 0 8.34 25.34v-4H4.42a3.88 3.88 0 0 0-2.772 1.172A4.042 4.042 0 0 0 .5 25.34Zm24.774-6.68a3.88 3.88 0 0 0 2.772-1.172 4.042 4.042 0 0 0 1.148-2.828V4c0-1.06-.413-2.078-1.148-2.828A3.88 3.88 0 0 0 25.274 0a3.88 3.88 0 0 0-2.771 1.172A4.042 4.042 0 0 0 21.354 4v10.66c0 .529.103 1.052.303 1.54.199.488.491.93.86 1.303.367.372.804.665 1.284.864.48.199.995.298 1.513.293h-.04Zm14.348-4c0-1.06-.413-2.078-1.148-2.828a3.88 3.88 0 0 0-2.772-1.172 3.88 3.88 0 0 0-2.772 1.172 4.042 4.042 0 0 0-1.148 2.828v4h3.92c.52.01 1.04-.085 1.524-.281.485-.197.926-.49 1.298-.862.373-.372.668-.817.87-1.308a4.07 4.07 0 0 0 .306-1.549h-.078Zm-24.736 6.68a3.88 3.88 0 0 0-2.771 1.172 4.042 4.042 0 0 0-1.149 2.828V36c0 1.06.413 2.078 1.149 2.828A3.88 3.88 0 0 0 14.886 40a3.88 3.88 0 0 0 2.772-1.172A4.042 4.042 0 0 0 18.806 36V25.34c0-1.06-.413-2.078-1.148-2.828a3.88 3.88 0 0 0-2.772-1.172ZM25.314 32h-3.92v4c0 .791.23 1.565.66 2.222a3.938 3.938 0 0 0 1.76 1.474 3.846 3.846 0 0 0 2.264.227 3.896 3.896 0 0 0 2.008-1.095 4.026 4.026 0 0 0 1.072-2.048 4.076 4.076 0 0 0-.223-2.31 3.983 3.983 0 0 0-1.444-1.796A3.864 3.864 0 0 0 25.314 32ZM35.78 21.34H25.314a3.88 3.88 0 0 0-2.772 1.172 4.042 4.042 0 0 0-1.148 2.828c0 1.06.413 2.078 1.148 2.828a3.88 3.88 0 0 0 2.772 1.172H35.78a3.88 3.88 0 0 0 2.772-1.172A4.042 4.042 0 0 0 39.7 25.34c0-1.06-.413-2.078-1.148-2.828a3.88 3.88 0 0 0-2.772-1.172ZM14.886 10.66H4.42a3.88 3.88 0 0 0-2.772 1.172A4.042 4.042 0 0 0 .5 14.66c0 1.06.413 2.078 1.148 2.828A3.88 3.88 0 0 0 4.42 18.66h10.466a3.88 3.88 0 0 0 2.772-1.172 4.042 4.042 0 0 0 1.148-2.828c0-1.06-.413-2.078-1.148-2.828a3.88 3.88 0 0 0-2.772-1.172Zm0-10.66a3.88 3.88 0 0 0-2.771 1.172A4.042 4.042 0 0 0 10.965 4c0 1.06.413 2.078 1.149 2.828A3.881 3.881 0 0 0 14.886 8h3.92V4c0-1.06-.413-2.078-1.148-2.828A3.88 3.88 0 0 0 14.886 0Z"/></svg>
